X:1
T:Title
%%score { 1 | 2 }
L:1/8
Q:1/4=100
M:4/4
K:F
V:1 treble nm="Grand Piano"
V:2 bass 
V:1
 c2 c>d c2 A>G | F2 F>D C4 | F2 F>G A2 G>F | [Ec]6 z2 | c2 c>d c2 A>G | F2 F>D C4 | %6
w: William~J.~Kirkpatrick * * * * *||||||
 F2 F>G A2 [EA]>[EG] | [CF]6 z2 | [EG]2 [EG]>[FA] [EG]2 [CE]>[EG] | [Ec]2 [Ec]>[Fd] [Ec]4 | %10
w: ||||
 A2 A>_A =A2 d>c | =B2 B>_B =B4 | [EG]2 [EG]>[FA] [EG]2 [CE]>[EG] | [Ec]2 [Ec]>[Fd] [Ge]4 | %14
w: ||||
 e2 d>c d2 [Ec]>[D=B] | [Ec]6 z2 | c2 c>d c2 A>G | F2 F>D C4 | F2 F>G A2 G>F | [Ec]6 z2 | %20
w: ||||||
 c2 c>d c2 A>G | F2 F>D C4 | F2 F>G A2 [EA]>[EG] |[M:8/4] [CF]8 z8 |] %24
w: ||||
V:2
 [F,A,F]2 [F,A,F]>[F,B,F] [F,A,F]2 [F,CF]>[F,B,C] | [F,A,C]2 [F,A,C]>[F,B,] [F,A,]4 | %2
 [F,A,C]2 [F,A,C]>[F,B,C] [F,CF]2 [E,G,C]>[D,G,D] | [C,G,]6 z2 | %4
 [F,A,F]2 [F,A,F]>[F,B,F] [F,A,F]2 [F,CF]>[F,B,C] | [F,A,C]2 [F,A,C]>[F,B,] [F,A,]4 | %6
 [F,A,C]2[K:treble] [A,C]>[B,DF] [CF]2[K:bass] [C,C]>[C,B,] | [F,A,]6 z2 | %8
 [C,C]2 [C,C]>[C,C] [C,C]2 [C,G,]>[C,C] | [C,G,]2 [C,G,]>[C,G,] [C,C]4 | %10
 [F,CF]2 [F,CF]>[F,=B,F] [F,CF]2 [F,A,F]>[F,DF] | [G,DF]2 [G,DF]>[G,^CF] [G,DF]4 | %12
 [C,C]2 [C,C]>[C,C] [C,C]2 [C,G,]>[C,G,] | [C,G,]2 [C,G,]>[C,G,] [C,C]4 | %14
 [G,CG]2 [G,CF]>[G,CE] [G,=B,F]2[K:bass] [G,,G,]>[G,,G,] | [C,G,]6 z2 | %16
 [F,A,F]2 [F,A,F]>[F,B,F] [F,A,F]2 [F,CF]>[F,B,C] | [F,A,C]2 [F,A,C]>[F,B,] [F,A,]4 | %18
 [F,A,C]2 [F,A,C]>[F,B,C] [F,CF]2 [E,G,C]>[D,G,D] | [C,G,]6 z2 | %20
 [F,A,F]2 [F,A,F]>[F,B,F] [F,A,F]2 [F,CF]>[F,B,C] | [F,A,C]2 [F,A,C]>[F,B,] [F,A,]4 | %22
 [F,A,C]2[K:treble] [A,C]>[B,DF] [CF]2[K:bass] [C,C]>[C,B,] |[M:8/4] [F,A,]8 z8 |] %24

